assets/images/icons/services_kitchen.svg

<svg width="86" height="74" viewBox="0 0 86 74" fill="none" xmlns="http://www.w3.org/2000/svg">
<path d="M0 1.24365H83.2915C83.6204 1.24365 83.9354 1.30664 84.2223 1.43262C84.6283 1.60758 85.3911 2.37044 85.5521 2.76937C85.6711 3.05632 85.7411 3.37126 85.7411 3.7002V20.3011C85.7411 20.63 85.6781 20.945 85.5521 21.2389C85.4261 21.5399 85.2441 21.8058 85.0202 22.0368L84.9922 22.0578C84.7682 22.2747 84.5093 22.4497 84.2223 22.5687C83.9354 22.6877 83.6204 22.7577 83.2915 22.7577H49.3968C49.2918 22.7577 49.2148 22.6737 49.2148 22.5757V4.13411H22.8018V8.95622L31.4032 18.7404C31.6481 19.0203 31.7601 19.3703 31.7391 19.7202C31.7181 20.0632 31.5641 20.3991 31.2842 20.651L31.2702 20.658C31.1442 20.763 31.0112 20.847 30.8643 20.896C30.7173 20.952 30.5563 20.98 30.4023 20.98H4.56315C4.19222 20.98 3.84928 20.826 3.61133 20.5811C3.36637 20.3361 3.2124 20.0002 3.2124 19.6292C3.2124 19.4333 3.25439 19.2513 3.33138 19.0833C3.40837 18.9084 3.52035 18.7544 3.66032 18.6284L12.5137 8.94922V4.13411H0V1.24365ZM22.0809 42.242C22.8787 42.242 23.5296 42.8929 23.5296 43.6908C23.5296 44.4886 22.8787 45.1395 22.0809 45.1395C21.283 45.1395 20.6322 44.4886 20.6322 43.6908C20.6322 42.8929 21.283 42.242 22.0809 42.242ZM12.8426 42.242C13.6405 42.242 14.2913 42.8929 14.2913 43.6908C14.2913 44.4886 13.6405 45.1395 12.8426 45.1395C12.0448 45.1395 11.3939 44.4886 11.3939 43.6908C11.3939 42.8929 12.0448 42.242 12.8426 42.242ZM22.8298 34.4665V35.9992V38.0288H83.5575C84.9012 38.0288 86.007 39.1346 86.007 40.4784V70.3068C86.007 71.6506 84.9082 72.7563 83.5645 72.7563C56.5495 72.7563 29.5485 72.7563 2.52653 72.7563C1.18978 72.7563 0.0769857 71.6436 0.0769857 70.3068V40.4784C0.0769857 39.1276 1.17578 38.0288 2.52653 38.0288H12.1007C12.1007 36.839 12.1007 35.6562 12.1007 34.4665H15.2852V35.9992H13.8294V38.0288H21.1081V35.9992H19.6523V34.4665H22.8298ZM83.2985 40.7303H62.5684V70.0549H83.3055V40.7303H83.2985ZM59.8669 40.7303H32.7329V47.2601H59.8669V40.7303ZM30.0314 40.7303H2.77148V70.0549H30.0314V40.7303ZM32.7329 70.0479H59.8669V49.9616H32.7329V70.0479ZM65.7878 42.242C65.9837 42.242 66.1727 42.284 66.3407 42.354L66.3477 42.361C66.5226 42.431 66.6766 42.543 66.8096 42.6689C66.9425 42.8019 67.0475 42.9629 67.1245 43.1379C67.1945 43.3058 67.2365 43.4948 67.2365 43.6908C67.2365 43.8867 67.1945 44.0687 67.1245 44.2437C67.0475 44.4186 66.9425 44.5796 66.8096 44.7126L66.7956 44.7196C66.6626 44.8455 66.5086 44.9505 66.3337 45.0205C66.1657 45.0905 65.9767 45.1325 65.7808 45.1325C65.5848 45.1325 65.3958 45.0905 65.2279 45.0205C65.0599 44.9505 64.9059 44.8455 64.773 44.7196L64.752 44.7056C64.619 44.5726 64.514 44.4116 64.444 44.2367L64.437 44.2297C64.367 44.0617 64.332 43.8797 64.332 43.6838C64.332 43.4878 64.374 43.2988 64.444 43.1309C64.514 42.9559 64.626 42.7949 64.7589 42.6619C64.8919 42.529 65.0529 42.424 65.2279 42.347L65.2349 42.34C65.4168 42.277 65.5988 42.242 65.7878 42.242ZM52.0073 4.13411H51.9163V20.0422H83.0536V4.13411H52.0073ZM54.6668 5.90479C54.7998 5.77881 54.9538 5.67383 55.1287 5.60384C55.2967 5.53385 55.4857 5.49186 55.6816 5.49186C55.8776 5.49186 56.0666 5.53385 56.2345 5.60384L56.2415 5.61084C56.4165 5.68083 56.5705 5.79281 56.7034 5.91878C56.8364 6.05176 56.9414 6.21273 57.0184 6.3877C57.0884 6.55566 57.1304 6.74463 57.1304 6.94059C57.1304 7.13656 57.0884 7.32552 57.0184 7.49349L57.0114 7.50049C56.9414 7.66846 56.8364 7.82243 56.7104 7.94841L56.6895 7.9694C56.5565 8.09538 56.4025 8.20036 56.2345 8.27035C56.0666 8.34033 55.8776 8.38232 55.6816 8.38232C55.4857 8.38232 55.2967 8.34033 55.1287 8.27035C54.9538 8.20036 54.7928 8.08838 54.6598 7.9554C54.5269 7.82243 54.4219 7.66146 54.3449 7.48649C54.2749 7.31852 54.2329 7.12956 54.2329 6.93359C54.2329 6.73763 54.2749 6.55566 54.3449 6.3807C54.4219 6.20573 54.5269 6.04476 54.6598 5.91178L54.6668 5.90479Z" fill="#390303" stroke="#390303" stroke-width="0.69987"/>
</svg>

<svg width="86" height="74" fill="none" xmlns="http://www.w3.org/2000/svg"><path d="M0 1.244h83.291c.33 0 .644.063.931.189.406.175 1.17.937 1.33 1.336.12.287.19.602.19.931v16.601c0 .329-.064.644-.19.938a2.57 2.57 0 0 1-.532.798l-.028.02a2.429 2.429 0 0 1-1.7.7H49.396a.18.18 0 0 1-.182-.181V4.134H22.802v4.822l8.601 9.784a1.355 1.355 0 0 1-.119 1.911l-.014.007a1.264 1.264 0 0 1-.406.238 1.315 1.315 0 0 1-.462.084H4.563c-.37 0-.714-.154-.952-.399a1.344 1.344 0 0 1-.399-.952c0-.196.042-.378.12-.546.076-.175.188-.329.328-.455l8.854-9.679V4.134H0v-2.89Zm22.08 40.998c.799 0 1.45.65 1.45 1.449 0 .798-.651 1.448-1.45 1.448-.797 0-1.448-.65-1.448-1.448 0-.798.651-1.449 1.449-1.449Zm-9.237 0c.797 0 1.448.65 1.448 1.449 0 .798-.65 1.448-1.448 1.448-.798 0-1.45-.65-1.45-1.448 0-.798.652-1.449 1.45-1.449Zm9.987-7.775v3.562h60.728a2.461 2.461 0 0 1 2.449 2.45v29.828a2.455 2.455 0 0 1-2.443 2.45H2.527a2.47 2.47 0 0 1-2.45-2.45V40.478c0-1.35 1.099-2.45 2.45-2.45H12.1v-3.561h3.184v1.532H13.83v2.03h7.28v-2.03h-1.457v-1.532h3.178Zm60.469 6.263h-20.73v29.325h20.736V40.73h-.007Zm-23.432 0H32.733v6.53h27.134v-6.53Zm-29.836 0H2.771v29.325h27.26V40.73Zm2.702 29.318h27.134V49.962H32.733v20.086Zm33.055-27.806c.196 0 .385.042.553.112l.007.007c.175.07.329.182.462.308a1.443 1.443 0 0 1 .427 1.022c0 .196-.042.378-.112.553a1.537 1.537 0 0 1-.315.469l-.014.007c-.133.126-.287.23-.462.3-.168.07-.357.112-.553.112a1.443 1.443 0 0 1-1.008-.412l-.021-.014a1.4 1.4 0 0 1-.308-.47l-.007-.006a1.443 1.443 0 0 1 .322-1.568c.133-.133.294-.238.469-.315l.007-.007c.182-.063.364-.098.553-.098ZM52.008 4.134h-.092v15.908h31.138V4.134H52.007Zm2.659 1.77c.133-.125.287-.23.462-.3.168-.07.357-.112.553-.112.196 0 .385.042.552.112l.008.007c.175.07.329.182.461.308a1.444 1.444 0 0 1 .427 1.022c0 .196-.042.385-.112.552l-.007.007c-.07.168-.175.322-.3.448l-.021.021a1.444 1.444 0 0 1-1.008.413 1.445 1.445 0 0 1-1.022-.427 1.444 1.444 0 0 1-.427-1.022c0-.195.042-.377.112-.552.077-.175.182-.336.315-.47l.007-.006Z" fill="#390303" stroke="#390303" stroke-width=".7"/></svg>
